assets/x-mark-red.svg

<?xml version="1.0" encoding="UTF-8" standalone="no"?>
<svg
   width="27.74mm"
   height="27.743mm"
   version="1.1"
   viewBox="0 0 27.74 27.743"
   id="svg6"
   sodipodi:docname="x-mark-red.svg"
   inkscape:version="1.1.2 (0a00cf5339, 2022-02-04)"
   xmlns:inkscape="http://www.inkscape.org/namespaces/inkscape"
   xmlns:sodipodi="http://sodipodi.sourceforge.net/DTD/sodipodi-0.dtd"
   xmlns="http://www.w3.org/2000/svg"
   xmlns:svg="http://www.w3.org/2000/svg">
  <defs
     id="defs10" />
  <sodipodi:namedview
     id="namedview8"
     pagecolor="#ffffff"
     bordercolor="#666666"
     borderopacity="1.0"
     inkscape:pageshadow="2"
     inkscape:pageopacity="0.0"
     inkscape:pagecheckerboard="0"
     inkscape:document-units="mm"
     showgrid="false"
     inkscape:zoom="7.4578873"
     inkscape:cx="52.360673"
     inkscape:cy="52.427717"
     inkscape:window-width="1920"
     inkscape:window-height="1011"
     inkscape:window-x="0"
     inkscape:window-y="0"
     inkscape:window-maximized="1"
     inkscape:current-layer="svg6" />
  <g
     transform="translate(-138.43 -135.39)"
     id="g4">
    <path
       d="m158.26 149.26 6.6768-6.6789c1.646-1.646 1.646-4.3146 0-5.9582-1.6462-1.6462-4.3127-1.6462-5.9587 0l-6.6768 6.6784-6.6768-6.6784c-1.646-1.6462-4.3124-1.6462-5.9582 0-1.646 1.6438-1.646 4.3124 0 5.9582l6.6768 6.6789-6.6768 6.6789c-1.646 1.646-1.646 4.3146 0 5.9582 0.82286 0.82285 1.9013 1.2345 2.9792 1.2345 1.0782 0 2.1561-0.41169 2.9792-1.2345l6.6768-6.6784 6.6768 6.6784c0.82286 0.82285 1.9013 1.2345 2.9792 1.2345 1.0784 0 2.1561-0.41169 2.9795-1.2345 1.646-1.6439 1.646-4.3124 0-5.9582z"
       stroke-width=".26458"
       id="path2" />
  </g>
  <path
     style="fill:#ff2a2a;stroke-width:0.134086"
     d="M 13.117711,104.52272 C 10.884683,104.11756 8.3626176,103.01322 6.5146319,101.63141 0.36626343,97.034069 -1.6568427,88.76286 1.71133,81.993731 2.8941709,79.616536 2.8312981,79.684506 16.751398,65.734476 L 30.032201,52.425118 17.007518,39.386531 C 9.8439412,32.215309 3.6535409,25.915527 3.2510723,25.387017 1.9410773,23.666768 0.88236579,21.321394 0.38611407,19.040245 0.06206883,17.550688 0.05876361,14.199904 0.37993405,12.775026 1.0908922,9.6208491 2.3709392,7.2439831 4.6015885,4.9360112 6.0778332,3.4085942 7.3238466,2.5114943 9.2412282,1.595581 13.581438,-0.47769151 18.707202,-0.40982798 23.062832,1.7785748 c 2.122826,1.0665733 2.385547,1.3113736 16.024876,14.9318492 7.264986,7.254944 13.26799,13.190806 13.340009,13.190806 0.07202,0 6.075022,-5.935862 13.340008,-13.190806 C 79.407054,3.0899484 79.669775,2.8451481 81.792601,1.7785748 c 4.475767,-2.24876301 9.597841,-2.26409364 14.079055,-0.042139 1.786838,0.8859816 2.769503,1.5804806 4.138074,2.9245857 4.96004,4.8713755 6.16586,12.1799435 3.03635,18.4035655 -1.07828,2.144381 -1.35651,2.443272 -15.007478,16.12212 L 74.824569,52.427727 88.105251,65.73578 c 13.917409,13.946095 13.846949,13.869939 15.041849,16.257951 3.03845,6.07234 1.73034,13.47633 -3.227105,18.265659 -3.105017,2.99973 -6.7265,4.46196 -11.050847,4.46196 -3.566282,0 -6.789577,-1.09969 -9.618941,-3.28167 C 78.731091,101.03934 72.48422,94.886598 65.36827,87.766923 L 52.430181,74.822062 39.154412,88.075956 C 27.872976,99.338802 25.707428,101.44135 24.73891,102.07208 c -1.99337,1.29815 -3.492653,1.91787 -5.755439,2.379 -1.554397,0.31677 -4.328043,0.35064 -5.86576,0.0716 z"
     id="path125"
     transform="scale(0.26458333)" />
  <path
     style="fill:#ff2a2a;stroke-width:0.134086"
     d="m 87.459466,104.57386 c -2.534791,-0.20532 -5.162832,-1.15272 -7.421535,-2.67544 C 79.212959,101.34225 76.031644,98.24628 65.743793,87.987731 58.465645,80.730313 52.44724,74.81374 52.369561,74.839792 c -0.07768,0.02605 -5.345849,5.239234 -11.707042,11.584846 -13.484703,13.451676 -14.900572,14.829272 -16.02817,15.594972 -1.241731,0.84319 -3.134957,1.7092 -4.6555,2.12953 -1.271761,0.35156 -1.485976,0.37041 -4.156674,0.3657 -2.677223,-0.005 -2.875205,-0.023 -4.022587,-0.37176 C 10.261231,103.67551 7.6307245,102.37193 6.4963324,101.515 4.7060242,100.16258 2.8495071,97.931577 1.8250779,95.901491 1.2505909,94.763044 0.66812261,92.974821 0.39591697,91.513853 0.06811731,89.754505 0.18113445,86.881902 0.64804782,85.105341 1.0551922,83.556195 1.8287331,81.74479 2.5420644,80.670111 3.5003357,79.226413 5.3573245,77.296635 17.756314,64.8595 L 30.159367,52.418288 19.094838,41.327366 C 4.3425868,26.539925 3.2347514,25.389707 2.4662165,24.062572 1.6707974,22.689013 0.96854569,21.013455 0.58607268,19.57659 0.32231589,18.585715 0.28230207,18.104115 0.27970648,15.889218 0.27707701,13.645399 0.31347501,13.205661 0.58491715,12.201847 1.3634981,9.3225957 2.5476757,7.2344919 4.6675162,5.0028512 8.5317598,0.93480767 14.368278,-0.74032563 19.804279,0.65846418 c 2.538027,0.65308432 4.21982,1.55975242 6.275493,3.38316982 0.774348,0.6868598 6.977244,6.786257 13.784214,13.554215 6.806969,6.76796 12.461644,12.305381 12.565944,12.305381 0.104301,0 5.75798,-5.536806 12.563731,-12.304012 C 77.463835,5.1976722 79.442695,3.2975985 80.78305,2.4364591 c 2.371196,-1.52342513 6.073471,-2.45255055 8.963236,-2.24942019 3.838053,0.26978831 7.335518,1.79629099 9.993574,4.36179159 2.54203,2.4535191 4.14935,5.4383032 4.73381,8.7906675 0.30567,1.753242 0.18669,4.663139 -0.26049,6.371178 -0.40688,1.554113 -1.19827,3.418082 -1.89999,4.475066 -0.95173,1.433577 -2.964782,3.524756 -15.347798,15.943482 L 74.694446,52.435555 86.297428,64.063617 c 14.957492,14.989821 15.408922,15.465229 16.452712,17.326726 1.21817,2.17248 1.76833,4.234309 1.86046,6.972484 0.0792,2.353481 -0.15063,3.867887 -0.90217,5.944879 -1.98974,5.498903 -7.471363,9.806924 -12.999094,10.216004 -0.553106,0.0409 -1.216833,0.0928 -1.474949,0.11516 -0.258116,0.0224 -1.05683,-0.007 -1.774921,-0.065 z"
     id="path275"
     transform="scale(0.26458333)" />
</svg>

<?xml version="1.0" encoding="UTF-8"?>
<svg width="27.74mm" height="27.743mm" version="1.1" viewBox="0 0 27.74 27.743" xmlns="http://www.w3.org/2000/svg">
 <g transform="translate(-138.43 -135.39)">
  <path d="m158.26 149.26 6.6768-6.6789c1.646-1.646 1.646-4.3146 0-5.9582-1.6462-1.6462-4.3127-1.6462-5.9587 0l-6.6768 6.6784-6.6768-6.6784c-1.646-1.6462-4.3124-1.6462-5.9582 0-1.646 1.6438-1.646 4.3124 0 5.9582l6.6768 6.6789-6.6768 6.6789c-1.646 1.646-1.646 4.3146 0 5.9582 0.82286 0.82285 1.9013 1.2345 2.9792 1.2345 1.0782 0 2.1561-0.41169 2.9792-1.2345l6.6768-6.6784 6.6768 6.6784c0.82286 0.82285 1.9013 1.2345 2.9792 1.2345 1.0784 0 2.1561-0.41169 2.9795-1.2345 1.646-1.6439 1.646-4.3124 0-5.9582z" stroke-width=".26458"/>
 </g>
 <path transform="scale(.26458)" d="m13.118 104.52c-2.233-0.40516-4.7551-1.5095-6.6031-2.8913-6.1484-4.5973-8.1715-12.869-4.8033-19.638 1.1828-2.3772 1.12-2.3092 15.04-16.259l13.281-13.309-13.025-13.039c-7.1636-7.1712-13.354-13.471-13.756-14-1.31-1.7202-2.3687-4.0656-2.865-6.3468-0.32405-1.4896-0.32735-4.8403-0.00618-6.2652 0.71096-3.1542 1.991-5.531 4.2217-7.839 1.4762-1.5274 2.7223-2.4245 4.6396-3.3404 4.3402-2.0733 9.466-2.0054 13.822 0.18299 2.1228 1.0666 2.3855 1.3114 16.025 14.932 7.265 7.2549 13.268 13.191 13.34 13.191 0.07202 0 6.075-5.9359 13.34-13.191 13.639-13.62 13.902-13.865 16.025-14.932 4.4758-2.2488 9.5978-2.2641 14.079-0.042139 1.7868 0.88598 2.7695 1.5805 4.1381 2.9246 4.96 4.8714 6.1659 12.18 3.0364 18.404-1.0783 2.1444-1.3565 2.4433-15.007 16.122l-13.214 13.241 13.281 13.308c13.917 13.946 13.847 13.87 15.042 16.258 3.0384 6.0723 1.7303 13.476-3.2271 18.266-3.105 2.9997-6.7265 4.462-11.051 4.462-3.5663 0-6.7896-1.0997-9.6189-3.2817-0.51912-0.40034-6.766-6.5531-13.882-13.673l-12.938-12.945-13.276 13.254c-11.281 11.263-13.447 13.365-14.416 13.996-1.9934 1.2982-3.4927 1.9179-5.7554 2.379-1.5544 0.31677-4.328 0.35064-5.8658 0.0716z" fill="#ff2a2a" stroke-width=".13409"/>
 <path transform="scale(.26458)" d="m87.459 104.57c-2.5348-0.20532-5.1628-1.1527-7.4215-2.6754-0.82497-0.55617-4.0063-3.6521-14.294-13.911-7.2781-7.2574-13.297-13.174-13.374-13.148-0.07768 0.02605-5.3458 5.2392-11.707 11.585-13.485 13.452-14.901 14.829-16.028 15.595-1.2417 0.84319-3.135 1.7092-4.6555 2.1295-1.2718 0.35156-1.486 0.37041-4.1567 0.3657-2.6772-5e-3 -2.8752-0.023-4.0226-0.37176-1.5384-0.46757-4.1689-1.7712-5.3033-2.6281-1.7903-1.3524-3.6468-3.5834-4.6713-5.6135-0.57449-1.1384-1.157-2.9267-1.4292-4.3876-0.3278-1.7593-0.21478-4.632 0.25213-6.4085 0.40714-1.5491 1.1807-3.3606 1.894-4.4352 0.95827-1.4437 2.8153-3.3735 15.214-15.811l12.403-12.441-11.065-11.091c-14.752-14.787-15.86-15.938-16.629-17.265-0.79542-1.3736-1.4977-3.0491-1.8801-4.486-0.26376-0.99088-0.30377-1.4725-0.30637-3.6874-0.0026295-2.2438 0.033769-2.6836 0.30521-3.6874 0.77858-2.8793 1.9628-4.9674 4.0826-7.199 3.8642-4.068 9.7008-5.7432 15.137-4.3444 2.538 0.65308 4.2198 1.5598 6.2755 3.3832 0.77435 0.68686 6.9772 6.7863 13.784 13.554 6.807 6.768 12.462 12.305 12.566 12.305 0.1043 0 5.758-5.5368 12.564-12.304 12.47-12.4 14.449-14.3 15.789-15.161 2.3712-1.5234 6.0735-2.4526 8.9632-2.2494 3.8381 0.26979 7.3355 1.7963 9.9936 4.3618 2.542 2.4535 4.1494 5.4383 4.7338 8.7907 0.30567 1.7532 0.18669 4.6631-0.26049 6.3712-0.40688 1.5541-1.1983 3.4181-1.9 4.4751-0.95173 1.4336-2.9648 3.5248-15.348 15.943l-12.271 12.306 11.603 11.628c14.957 14.99 15.409 15.465 16.453 17.327 1.2182 2.1725 1.7683 4.2343 1.8605 6.9725 0.0792 2.3535-0.15063 3.8679-0.90217 5.9449-1.9897 5.4989-7.4714 9.8069-12.999 10.216-0.55311 0.0409-1.2168 0.0928-1.4749 0.11516-0.25812 0.0224-1.0568-7e-3 -1.7749-0.065z" fill="#ba5546" stroke-width=".13409"/>
</svg>
